X:920
T:the French Taptoo
A:Wyresdale, Lancashire
B:H.S.J. Jackson, 1823
L:1/8
M:2/4
O:England
U:w=!wedge!
Z:Richard Robinson 
%%TUNEURL: http://www.leeds.ac.uk/music/Info/RRTuneBk/gettune/000005dd.html
%%ID:000005dd
K:G
D |\
GBAG | d2Bd | edcB | (A/G/A/B/) AD |\
GBAG | d2Bd | edcB | A3 ::
e | \
ec        AB/c/   | d>BGd             | cBAG        | (A/G/F/E/) DB/c/ | \
wd(B/c/) wd(A/B/) | wc(A/B/) wc(d/c/) | B/A/G/A/ BA | G3 :|
%page:107
